src/assets/images/logo.svg

<svg width="219" height="181" viewBox="0 0 219 181" fill="none" xmlns="http://www.w3.org/2000/svg">
<g filter="url(#filter0_d_4_107)">
<path d="M185.214 83.1705C185.214 124.178 151.971 157.42 110.964 157.42C69.9571 157.42 36.7143 124.178 36.7143 83.1705C36.7143 42.1633 69.9571 8.92046 110.964 8.92046C151.971 8.92046 185.214 42.1633 185.214 83.1705Z" fill="#FCDC36"/>
<path d="M21.4156 87.9205H205.75L194.334 132.92H10L21.4156 87.9205Z" fill="#41197F"/>
<path d="M23.6656 85.6705H208L196.584 130.67H12.25L23.6656 85.6705Z" fill="#FCC436"/>
<path d="M30.1833 123.545L36.1675 95.4351H45.6584C47.9326 95.4351 49.6224 95.9433 50.7278 96.9597C51.8331 97.9634 52.3858 99.3038 52.3858 100.981C52.3858 101.985 52.227 103.001 51.9094 104.03C51.5917 105.059 51.1407 106.012 50.5562 106.889C49.9718 107.766 49.273 108.49 48.4599 109.061C47.6594 109.633 46.7764 109.97 45.8108 110.072C46.3953 110.122 46.9352 110.268 47.4307 110.51C47.939 110.739 48.3455 111.101 48.6505 111.596C48.9681 112.079 49.1269 112.721 49.1269 113.521C49.1269 113.864 49.0697 114.341 48.9554 114.95C48.841 115.56 48.7013 116.24 48.5361 116.99C48.3709 117.726 48.2058 118.47 48.0406 119.219C47.8754 119.956 47.7357 120.636 47.6213 121.259C47.507 121.881 47.4498 122.37 47.4498 122.726C47.4498 122.917 47.4562 123.088 47.4689 123.241C47.4943 123.38 47.526 123.482 47.5642 123.545H44.2862C44.2227 123.38 44.1909 123.126 44.1909 122.783C44.1909 122.453 44.2417 122.002 44.3434 121.43C44.4577 120.846 44.5911 120.217 44.7436 119.543C44.9088 118.857 45.0676 118.178 45.22 117.504C45.3725 116.818 45.4995 116.189 45.6012 115.617C45.7155 115.046 45.7727 114.601 45.7727 114.283C45.7727 113.318 45.4297 112.619 44.7436 112.187C44.0575 111.755 43.111 111.539 41.904 111.539H34.4904L36.1675 110.415L33.366 123.545H30.1833ZM36.3009 109.767L35.0241 108.68H42.5329C43.7272 108.68 44.8071 108.375 45.7727 107.766C46.7383 107.156 47.507 106.349 48.0787 105.345C48.6505 104.341 48.9363 103.242 48.9363 102.048C48.9363 100.879 48.5996 99.9645 47.9263 99.3038C47.2529 98.6305 46.1602 98.2938 44.6483 98.2938H37.3491L39.1215 96.4642L36.3009 109.767Z" fill="#41197F"/>
<path d="M62.4951 98.2938L64.3437 96.4452L61.6566 109.138L61.0848 108.013H71.8716L71.2808 110.872H60.494L61.5232 109.748L58.8169 122.535L57.7306 120.687H71.2999L70.69 123.545H55.3293L61.3135 95.4351H76.6742L76.0643 98.2938H62.4951Z" fill="#41197F"/>
<path d="M99.03 113.769C98.7886 114.9 98.3439 116.062 97.6959 117.256C97.0607 118.438 96.2221 119.537 95.1803 120.553C94.1512 121.557 92.9442 122.37 91.5593 122.993C90.1744 123.615 88.618 123.927 86.8901 123.927C84.8954 123.927 83.2564 123.488 81.9732 122.612C80.7027 121.735 79.7625 120.534 79.1526 119.01C78.5555 117.472 78.2569 115.725 78.2569 113.769C78.2569 111.393 78.5809 109.093 79.2288 106.87C79.8895 104.646 80.8361 102.652 82.0685 100.886C83.3136 99.1069 84.8128 97.6966 86.5661 96.6548C88.3322 95.613 90.3205 95.092 92.5313 95.092C94.5895 95.092 96.2412 95.5113 97.4863 96.3499C98.7441 97.1757 99.6526 98.2302 100.212 99.5135C100.771 100.797 101.05 102.118 101.05 103.478C101.05 103.821 101.031 104.138 100.993 104.43C100.955 104.723 100.904 104.983 100.84 105.212H97.5816C97.6197 105.021 97.6578 104.767 97.6959 104.449C97.7468 104.119 97.7722 103.814 97.7722 103.535C97.7722 102.518 97.5689 101.597 97.1623 100.771C96.7685 99.9455 96.1586 99.2848 95.3328 98.7893C94.5069 98.2938 93.4524 98.046 92.1692 98.046C90.4539 98.046 88.9357 98.5034 87.6143 99.4182C86.293 100.333 85.1813 101.553 84.2792 103.077C83.3771 104.602 82.6974 106.298 82.24 108.166C81.7826 110.021 81.5539 111.895 81.5539 113.788C81.5539 116.126 82.0177 117.911 82.9451 119.143C83.8726 120.376 85.2956 120.992 87.2141 120.992C88.3449 120.992 89.3867 120.788 90.3396 120.382C91.3052 119.963 92.1564 119.404 92.8934 118.705C93.643 118.006 94.2592 117.231 94.742 116.38C95.2375 115.516 95.5805 114.645 95.7711 113.769H99.03Z" fill="#41197F"/>
<path d="M103.799 123.545L109.764 95.4351H112.985L107.039 123.545H103.799Z" fill="#41197F"/>
<path d="M118.318 123.545H115.059L121.044 95.4351H128.743C130.662 95.4351 132.212 95.7654 133.393 96.4261C134.575 97.0868 135.439 97.9761 135.985 99.0942C136.544 100.2 136.824 101.432 136.824 102.791C136.824 104.469 136.544 105.98 135.985 107.327C135.426 108.661 134.632 109.811 133.603 110.777C132.574 111.73 131.348 112.46 129.925 112.968C128.514 113.477 126.952 113.731 125.236 113.731H120.415L118.318 123.545ZM120.662 112.53L119.557 110.872H125.255C126.945 110.872 128.413 110.535 129.658 109.862C130.903 109.189 131.869 108.248 132.555 107.041C133.241 105.834 133.584 104.424 133.584 102.81C133.584 101.845 133.387 101.032 132.993 100.371C132.612 99.6977 132.002 99.1831 131.163 98.8274C130.338 98.4716 129.258 98.2938 127.924 98.2938H122.225L124.074 96.4452L120.662 112.53Z" fill="#41197F"/>
<path d="M146.627 98.2938L148.475 96.4452L145.788 109.138L145.217 108.013H156.003L155.412 110.872H144.626L145.655 109.748L142.949 122.535L141.862 120.687H155.432L154.822 123.545H139.461L145.445 95.4351H160.806L160.196 98.2938H146.627Z" fill="#41197F"/>
<path d="M170.885 123.927C169.272 123.927 167.868 123.698 166.674 123.241C165.479 122.77 164.558 122.084 163.91 121.182C163.262 120.268 162.938 119.137 162.938 117.79C162.938 117.167 162.983 116.596 163.072 116.075C163.173 115.554 163.307 114.95 163.472 114.264H166.712C166.547 114.925 166.426 115.484 166.35 115.941C166.286 116.399 166.254 116.85 166.254 117.294C166.254 118.641 166.674 119.594 167.512 120.153C168.363 120.712 169.596 120.992 171.209 120.992C172.582 120.992 173.808 120.807 174.888 120.439C175.967 120.058 176.819 119.48 177.441 118.705C178.064 117.917 178.375 116.907 178.375 115.675C178.375 114.468 177.88 113.477 176.889 112.702C175.91 111.927 174.576 111.266 172.886 110.72C171.603 110.288 170.447 109.754 169.418 109.119C168.402 108.471 167.595 107.689 166.998 106.775C166.413 105.86 166.121 104.799 166.121 103.592C166.121 102.232 166.381 101.025 166.902 99.9709C167.436 98.9163 168.173 98.027 169.113 97.3028C170.053 96.5786 171.146 96.0322 172.391 95.6638C173.636 95.2826 174.983 95.092 176.431 95.092C178.045 95.092 179.442 95.3207 180.624 95.7781C181.818 96.2228 182.739 96.8835 183.387 97.7601C184.035 98.6368 184.359 99.7231 184.359 101.019C184.359 101.578 184.315 102.137 184.226 102.696C184.137 103.255 184.023 103.84 183.883 104.449H180.624C180.764 103.865 180.865 103.344 180.929 102.887C181.005 102.417 181.043 101.953 181.043 101.495C181.043 100.2 180.618 99.2975 179.766 98.7893C178.915 98.2811 177.689 98.027 176.088 98.027C174.792 98.027 173.636 98.1985 172.62 98.5415C171.603 98.8846 170.803 99.4245 170.218 100.161C169.634 100.886 169.342 101.832 169.342 103.001C169.342 104.335 169.863 105.383 170.904 106.146C171.946 106.895 173.338 107.575 175.078 108.185C176.438 108.655 177.606 109.208 178.585 109.843C179.563 110.478 180.313 111.228 180.834 112.092C181.367 112.956 181.634 113.966 181.634 115.122C181.634 116.99 181.158 118.584 180.205 119.905C179.265 121.214 177.981 122.211 176.355 122.898C174.741 123.584 172.918 123.927 170.885 123.927Z" fill="#41197F"/>
<path d="M98.6522 144.076C98.1347 144.076 97.6735 143.995 97.2685 143.833C96.8635 143.666 96.544 143.425 96.31 143.11C96.076 142.795 95.959 142.413 95.959 141.963C95.959 141.445 96.1052 141.027 96.3977 140.707C96.6902 140.383 97.0705 140.138 97.5385 139.972C98.0065 139.801 98.5015 139.69 99.0235 139.641C99.7795 139.569 100.295 139.506 100.569 139.452C100.848 139.393 100.988 139.294 100.988 139.155C100.988 139.15 100.988 139.148 100.988 139.148C100.988 139.144 100.988 139.141 100.988 139.141C100.988 138.925 100.873 138.75 100.643 138.615C100.418 138.48 100.108 138.412 99.712 138.412C99.2935 138.412 98.9762 138.489 98.7602 138.642C98.5487 138.79 98.443 139.018 98.443 139.324H96.067C96.067 138.734 96.229 138.239 96.553 137.839C96.8815 137.434 97.3225 137.128 97.876 136.921C98.4295 136.714 99.0482 136.61 99.7322 136.61C100.38 136.61 100.981 136.707 101.534 136.9C102.092 137.094 102.542 137.389 102.884 137.785C103.231 138.181 103.404 138.685 103.404 139.297C103.404 139.391 103.404 139.486 103.404 139.58C103.404 139.675 103.404 139.769 103.404 139.864V142.24C103.404 142.429 103.409 142.613 103.418 142.793C103.427 142.969 103.451 143.131 103.492 143.279C103.541 143.441 103.602 143.578 103.674 143.691C103.751 143.803 103.811 143.88 103.856 143.92H101.501C101.465 143.884 101.411 143.815 101.339 143.711C101.271 143.608 101.213 143.488 101.163 143.353C101.105 143.173 101.062 143 101.035 142.834C101.008 142.663 100.994 142.46 100.994 142.226L101.507 142.577C101.381 142.888 101.174 143.155 100.886 143.38C100.603 143.605 100.268 143.779 99.8807 143.9C99.4937 144.017 99.0842 144.076 98.6522 144.076ZM99.3407 142.327C99.6197 142.327 99.8875 142.271 100.144 142.159C100.4 142.046 100.612 141.866 100.778 141.619C100.945 141.371 101.028 141.04 101.028 140.626V140.134L101.636 140.674C101.339 140.777 101.001 140.865 100.623 140.937C100.245 141.004 99.8762 141.056 99.5162 141.092C99.1337 141.133 98.848 141.198 98.659 141.288C98.47 141.378 98.3755 141.526 98.3755 141.733C98.3755 141.931 98.4565 142.08 98.6185 142.179C98.785 142.278 99.0257 142.327 99.3407 142.327Z" fill="#41197F"/>
<path d="M104.805 146.87V136.752H107.215V146.87H104.805ZM109.382 144.089C108.815 144.089 108.295 143.934 107.823 143.623C107.355 143.308 106.981 142.888 106.702 142.361C106.423 141.83 106.284 141.238 106.284 140.586C106.284 140.568 106.284 140.55 106.284 140.532C106.284 140.509 106.284 140.487 106.284 140.464L107.215 140.444C107.215 140.458 107.215 140.473 107.215 140.491C107.215 140.505 107.215 140.516 107.215 140.525C107.215 140.84 107.287 141.112 107.431 141.342C107.58 141.567 107.769 141.74 107.998 141.862C108.232 141.979 108.473 142.037 108.72 142.037C109.121 142.037 109.476 141.898 109.787 141.619C110.097 141.34 110.253 140.899 110.253 140.296C110.253 139.693 110.097 139.258 109.787 138.993C109.481 138.723 109.125 138.588 108.72 138.588C108.477 138.588 108.239 138.646 108.005 138.763C107.775 138.876 107.586 139.042 107.438 139.263C107.289 139.479 107.215 139.747 107.215 140.066L106.284 140.005C106.284 139.348 106.423 138.766 106.702 138.257C106.981 137.749 107.355 137.348 107.823 137.056C108.295 136.759 108.815 136.61 109.382 136.61C109.962 136.61 110.507 136.752 111.015 137.035C111.528 137.319 111.942 137.735 112.257 138.284C112.577 138.833 112.737 139.504 112.737 140.296C112.737 141.128 112.581 141.826 112.271 142.388C111.96 142.951 111.551 143.376 111.042 143.664C110.534 143.947 109.98 144.089 109.382 144.089Z" fill="#41197F"/>
<path d="M113.889 146.87V136.752H116.299V146.87H113.889ZM118.465 144.089C117.898 144.089 117.379 143.934 116.906 143.623C116.438 143.308 116.065 142.888 115.786 142.361C115.507 141.83 115.367 141.238 115.367 140.586C115.367 140.568 115.367 140.55 115.367 140.532C115.367 140.509 115.367 140.487 115.367 140.464L116.299 140.444C116.299 140.458 116.299 140.473 116.299 140.491C116.299 140.505 116.299 140.516 116.299 140.525C116.299 140.84 116.371 141.112 116.515 141.342C116.663 141.567 116.852 141.74 117.082 141.862C117.316 141.979 117.556 142.037 117.804 142.037C118.204 142.037 118.56 141.898 118.87 141.619C119.181 141.34 119.336 140.899 119.336 140.296C119.336 139.693 119.181 139.258 118.87 138.993C118.564 138.723 118.209 138.588 117.804 138.588C117.561 138.588 117.322 138.646 117.088 138.763C116.859 138.876 116.67 139.042 116.521 139.263C116.373 139.479 116.299 139.747 116.299 140.066L115.367 140.005C115.367 139.348 115.507 138.766 115.786 138.257C116.065 137.749 116.438 137.348 116.906 137.056C117.379 136.759 117.898 136.61 118.465 136.61C119.046 136.61 119.59 136.752 120.099 137.035C120.612 137.319 121.026 137.735 121.341 138.284C121.66 138.833 121.82 139.504 121.82 140.296C121.82 141.128 121.665 141.826 121.354 142.388C121.044 142.951 120.634 143.376 120.126 143.664C119.617 143.947 119.064 144.089 118.465 144.089Z" fill="#41197F"/>
<path fill-rule="evenodd" clip-rule="evenodd" d="M112.856 31.631V40.6179H109.861V31.631H112.856Z" fill="#8958A3"/>
<path fill-rule="evenodd" clip-rule="evenodd" d="M154.795 81.0588C154.795 57.0695 135.348 37.6223 111.358 37.6223C87.3692 37.6223 67.922 57.0695 67.922 81.0588H154.795Z" fill="#41197F"/>
<path fill-rule="evenodd" clip-rule="evenodd" d="M77.8282 64.3716C83.9621 52.0694 96.6714 43.6136 111.358 43.6136C112.186 43.6136 112.856 44.2841 112.856 45.1114C112.856 45.9386 112.186 46.6092 111.358 46.6092C97.8506 46.6092 86.1558 54.3833 80.5091 65.7083C80.14 66.4486 79.2406 66.7495 78.5003 66.3803C77.76 66.0112 77.4591 65.1119 77.8282 64.3716Z" fill="white"/>
<path d="M155.544 81.0588H67.1731C65.105 81.0588 63.4286 82.7353 63.4286 84.8033C63.4286 86.8714 65.105 88.5479 67.1731 88.5479H155.544C157.612 88.5479 159.288 86.8714 159.288 84.8033C159.288 82.7353 157.612 81.0588 155.544 81.0588Z" fill="#8958A3"/>
<path fill-rule="evenodd" clip-rule="evenodd" d="M105.367 30.1332H117.35V34.6266H105.367V30.1332Z" fill="#41197F"/>
<path fill-rule="evenodd" clip-rule="evenodd" d="M131.65 0.170456C125.789 0.170456 121.038 3.7083 121.038 10.889C121.038 18.0697 137.059 34.2176 139.764 34.2176C142.469 34.2176 158.49 18.0697 158.49 10.889C158.49 3.7083 153.739 0.170456 147.879 0.170456C144.624 0.170456 141.711 1.65101 139.764 3.98182C137.818 1.65101 134.905 0.170456 131.65 0.170456Z" fill="#E44343"/>
<path fill-rule="evenodd" clip-rule="evenodd" d="M126.197 6.86605C127.644 4.79783 130.091 3.58266 132.546 3.58266C133.486 3.58266 134.248 4.34483 134.248 5.28501C134.248 6.2252 133.486 6.98737 132.546 6.98737C131.165 6.98737 129.776 7.69014 128.986 8.81851C128.252 9.86654 127.933 11.4324 128.954 13.4741C129.375 14.3151 129.034 15.3376 128.193 15.7581C127.352 16.1785 126.329 15.8377 125.909 14.9968C124.373 11.924 124.693 9.01461 126.197 6.86605Z" fill="white"/>
</g>
<defs>
<filter id="filter0_d_4_107" x="0.571428" y="0.170456" width="218.429" height="180.821" filterUnits="userSpaceOnUse" color-interpolation-filters="sRGB">
<feFlood flood-opacity="0" result="BackgroundImageFix"/>
<feColorMatrix in="SourceAlpha" type="matrix" values="0 0 0 0 0 0 0 0 0 0 0 0 0 0 0 0 0 0 127 0" result="hardAlpha"/>
<feOffset dx="0.785714" dy="13.3571"/>
<feGaussianBlur stdDeviation="5.10714"/>
<feComposite in2="hardAlpha" operator="out"/>
<feColorMatrix type="matrix" values="0 0 0 0 0.128867 0 0 0 0 0.0722222 0 0 0 0 0.216667 0 0 0 0.2 0"/>
<feBlend mode="normal" in2="BackgroundImageFix" result="effect1_dropShadow_4_107"/>
<feBlend mode="normal" in="SourceGraphic" in2="effect1_dropShadow_4_107" result="shape"/>
</filter>
</defs>
</svg>

<svg width="219" height="181" fill="none" xmlns="http://www.w3.org/2000/svg"><g filter="url(#a)"><path d="M185.214 83.17c0 41.008-33.243 74.25-74.25 74.25s-74.25-33.242-74.25-74.25c0-41.007 33.243-74.25 74.25-74.25s74.25 33.243 74.25 74.25z" fill="#FCDC36"/><path d="M21.416 87.92H205.75l-11.416 45H10l11.416-45z" fill="#41197F"/><path d="M23.666 85.67H208l-11.416 45H12.25l11.416-45z" fill="#FCC436"/><path d="m30.183 123.545 5.984-28.11h9.491c2.275 0 3.964.508 5.07 1.525 1.105 1.003 1.658 2.344 1.658 4.021 0 1.004-.159 2.02-.477 3.049a10.95 10.95 0 0 1-1.353 2.859 8.124 8.124 0 0 1-2.096 2.172c-.8.572-1.684.909-2.65 1.011.585.05 1.125.196 1.62.438.509.229.916.591 1.22 1.086.318.483.477 1.125.477 1.925 0 .343-.057.82-.172 1.429-.114.61-.254 1.29-.419 2.04-.165.736-.33 1.48-.495 2.229a53.833 53.833 0 0 0-.42 2.04c-.114.622-.171 1.111-.171 1.467 0 .191.006.362.019.515a.95.95 0 0 0 .095.304h-3.278c-.063-.165-.095-.419-.095-.762 0-.33.05-.781.152-1.353a66.25 66.25 0 0 1 .4-1.887c.166-.686.325-1.365.477-2.039.153-.686.28-1.315.381-1.887.114-.571.172-1.016.172-1.334 0-.965-.343-1.664-1.03-2.096-.686-.432-1.632-.648-2.839-.648H34.49l1.677-1.124-2.801 13.13h-3.183zm6.118-13.778-1.277-1.087h7.509c1.194 0 2.274-.305 3.24-.914a6.795 6.795 0 0 0 2.306-2.421 6.547 6.547 0 0 0 .857-3.297c0-1.169-.336-2.084-1.01-2.744-.673-.674-1.766-1.01-3.278-1.01H37.35l1.773-1.83-2.821 13.303zM62.495 98.294l1.849-1.849-2.687 12.693-.572-1.125h10.787l-.591 2.859H60.494l1.03-1.124-2.707 12.787-1.086-1.848H71.3l-.61 2.858H55.33l5.983-28.11h15.361l-.61 2.859H62.495zM99.03 113.769c-.241 1.131-.686 2.293-1.334 3.487-.635 1.182-1.474 2.281-2.516 3.297a12.44 12.44 0 0 1-3.62 2.44c-1.386.622-2.942.934-4.67.934-1.995 0-3.634-.439-4.917-1.315-1.27-.877-2.21-2.078-2.82-3.602-.598-1.538-.896-3.285-.896-5.241 0-2.376.324-4.676.972-6.899.66-2.224 1.607-4.218 2.84-5.984 1.245-1.78 2.744-3.19 4.497-4.231 1.766-1.042 3.754-1.563 5.965-1.563 2.058 0 3.71.42 4.955 1.258 1.258.826 2.167 1.88 2.726 3.163a9.831 9.831 0 0 1 .838 3.965c0 .343-.019.66-.057.952a5.589 5.589 0 0 1-.153.782h-3.258c.038-.191.076-.445.114-.763.05-.33.076-.635.076-.914 0-1.017-.203-1.938-.61-2.764-.394-.826-1.003-1.486-1.83-1.982-.825-.495-1.88-.743-3.163-.743-1.715 0-3.233.457-4.555 1.372-1.321.915-2.433 2.135-3.335 3.659-.902 1.525-1.582 3.221-2.039 5.089a23.4 23.4 0 0 0-.686 5.622c0 2.338.464 4.123 1.391 5.355.928 1.233 2.35 1.849 4.27 1.849 1.13 0 2.172-.204 3.125-.61a8.72 8.72 0 0 0 2.553-1.677 9.748 9.748 0 0 0 1.849-2.325 9.162 9.162 0 0 0 1.03-2.611h3.258zM103.799 123.545l5.965-28.11h3.221l-5.946 28.11h-3.24zM118.318 123.545h-3.259l5.985-28.11h7.699c1.919 0 3.469.33 4.65.991 1.182.66 2.046 1.55 2.592 2.668.559 1.106.839 2.338.839 3.697 0 1.678-.28 3.189-.839 4.536a9.944 9.944 0 0 1-2.382 3.45c-1.029.953-2.255 1.683-3.678 2.191-1.411.509-2.973.763-4.689.763h-4.821l-2.097 9.814zm2.344-11.015-1.105-1.658h5.698c1.69 0 3.158-.337 4.403-1.01a7.2 7.2 0 0 0 2.897-2.821c.686-1.207 1.029-2.617 1.029-4.231 0-.965-.197-1.778-.591-2.439-.381-.673-.991-1.188-1.83-1.544-.825-.355-1.905-.533-3.239-.533h-5.699l1.849-1.849-3.412 16.085zM146.627 98.294l1.848-1.849-2.687 12.693-.571-1.125h10.786l-.591 2.859h-10.786l1.029-1.124-2.706 12.787-1.087-1.848h13.57l-.61 2.858h-15.361l5.984-28.11h15.361l-.61 2.859h-13.569zM170.885 123.927c-1.613 0-3.017-.229-4.211-.686-1.195-.471-2.116-1.157-2.764-2.059-.648-.914-.972-2.045-.972-3.392 0-.623.045-1.194.134-1.715.101-.521.235-1.125.4-1.811h3.24c-.165.661-.286 1.22-.362 1.677a9.769 9.769 0 0 0-.096 1.353c0 1.347.42 2.3 1.258 2.859.851.559 2.084.839 3.697.839 1.373 0 2.599-.185 3.679-.553 1.079-.381 1.931-.959 2.553-1.734.623-.788.934-1.798.934-3.03 0-1.207-.495-2.198-1.486-2.973-.979-.775-2.313-1.436-4.003-1.982a16.767 16.767 0 0 1-3.468-1.601c-1.016-.648-1.823-1.43-2.42-2.344-.585-.915-.877-1.976-.877-3.183 0-1.36.26-2.567.781-3.621a7.745 7.745 0 0 1 2.211-2.668c.94-.724 2.033-1.27 3.278-1.64 1.245-.38 2.592-.571 4.04-.571 1.614 0 3.011.229 4.193.686 1.194.445 2.115 1.105 2.763 1.982.648.877.972 1.963.972 3.259 0 .559-.044 1.118-.133 1.677a26.285 26.285 0 0 1-.343 1.753h-3.259c.14-.584.241-1.105.305-1.562a8.71 8.71 0 0 0 .114-1.392c0-1.295-.425-2.198-1.277-2.706-.851-.508-2.077-.762-3.678-.762-1.296 0-2.452.171-3.468.514-1.017.344-1.817.883-2.402 1.62-.584.725-.876 1.671-.876 2.84 0 1.334.521 2.382 1.562 3.145 1.042.749 2.434 1.429 4.174 2.039 1.36.47 2.528 1.023 3.507 1.658.978.635 1.728 1.385 2.249 2.249.533.864.8 1.874.8 3.03 0 1.868-.476 3.462-1.429 4.783-.94 1.309-2.224 2.306-3.85 2.993-1.614.686-3.437 1.029-5.47 1.029zM98.652 144.076c-.517 0-.978-.081-1.383-.243a2.212 2.212 0 0 1-.959-.723c-.234-.315-.351-.697-.351-1.147 0-.518.146-.936.439-1.256a2.734 2.734 0 0 1 1.14-.735 5.921 5.921 0 0 1 1.486-.331c.755-.072 1.271-.135 1.545-.189.279-.059.419-.158.419-.297v-.014c0-.216-.115-.391-.345-.526-.225-.135-.535-.203-.931-.203-.419 0-.736.077-.952.23-.211.148-.317.376-.317.682h-2.376c0-.59.162-1.085.486-1.485.329-.405.77-.711 1.323-.918a5.266 5.266 0 0 1 1.856-.311c.648 0 1.249.097 1.802.29.558.194 1.008.489 1.35.885.347.396.52.9.52 1.512V142.24c0 .189.005.373.014.553.009.176.033.338.074.486.049.162.11.299.182.412.077.112.137.189.182.229h-2.355a1.686 1.686 0 0 1-.338-.567 3.563 3.563 0 0 1-.128-.519 3.954 3.954 0 0 1-.041-.608l.513.351a1.933 1.933 0 0 1-.621.803 3.067 3.067 0 0 1-1.005.52 4.223 4.223 0 0 1-1.229.176zm.689-1.749c.279 0 .547-.056.803-.168.256-.113.468-.293.634-.54.167-.248.25-.579.25-.993v-.492l.608.54a7.241 7.241 0 0 1-1.013.263c-.378.067-.747.119-1.107.155-.382.041-.668.106-.857.196a.46.46 0 0 0-.284.445c0 .198.082.347.243.446.167.099.408.148.723.148zM104.805 146.87v-10.118h2.41v10.118h-2.41zm4.577-2.781a2.775 2.775 0 0 1-1.559-.466 3.419 3.419 0 0 1-1.121-1.262 3.758 3.758 0 0 1-.418-1.775v-.122l.931-.02v.081c0 .315.072.587.216.817.149.225.338.398.567.52.234.117.475.175.722.175a1.55 1.55 0 0 0 1.067-.418c.31-.279.466-.72.466-1.323s-.156-1.038-.466-1.303a1.581 1.581 0 0 0-1.782-.23c-.23.113-.419.279-.567.5-.149.216-.223.484-.223.803l-.931-.061c0-.657.139-1.239.418-1.748a3.204 3.204 0 0 1 1.121-1.201 2.87 2.87 0 0 1 1.559-.446c.58 0 1.125.142 1.633.425.513.284.927.7 1.242 1.249.32.549.48 1.22.48 2.012 0 .832-.156 1.53-.466 2.092-.311.563-.72.988-1.229 1.276a3.357 3.357 0 0 1-1.66.425zM113.889 146.87v-10.118h2.41v10.118h-2.41zm4.576-2.781a2.777 2.777 0 0 1-1.559-.466 3.417 3.417 0 0 1-1.12-1.262 3.758 3.758 0 0 1-.419-1.775v-.122l.932-.02v.081c0 .315.072.587.216.817.148.225.337.398.567.52.234.117.474.175.722.175.4 0 .756-.139 1.066-.418.311-.279.466-.72.466-1.323s-.155-1.038-.466-1.303a1.585 1.585 0 0 0-1.782-.23 1.447 1.447 0 0 0-.567.5c-.148.216-.222.484-.222.803l-.932-.061c0-.657.14-1.239.419-1.748a3.201 3.201 0 0 1 1.12-1.201 2.873 2.873 0 0 1 1.559-.446c.581 0 1.125.142 1.634.425.513.284.927.7 1.242 1.249.319.549.479 1.22.479 2.012 0 .832-.155 1.53-.466 2.092-.31.563-.72.988-1.228 1.276a3.36 3.36 0 0 1-1.661.425z" fill="#41197F"/><path fill-rule="evenodd" clip-rule="evenodd" d="M112.856 31.631v8.987h-2.995V31.63h2.995z" fill="#8958A3"/><path fill-rule="evenodd" clip-rule="evenodd" d="M154.795 81.059c0-23.99-19.447-43.437-43.437-43.437-23.989 0-43.436 19.447-43.436 43.437h86.873z" fill="#41197F"/><path fill-rule="evenodd" clip-rule="evenodd" d="M77.828 64.372c6.134-12.303 18.843-20.758 33.53-20.758a1.497 1.497 0 1 1 0 2.995c-13.507 0-25.202 7.774-30.849 19.1a1.498 1.498 0 1 1-2.68-1.337z" fill="#fff"/><path d="M155.544 81.059h-88.37a3.744 3.744 0 1 0 0 7.489h88.37a3.744 3.744 0 0 0 0-7.49z" fill="#8958A3"/><path fill-rule="evenodd" clip-rule="evenodd" d="M105.367 30.133h11.983v4.494h-11.983v-4.494z" fill="#41197F"/><path fill-rule="evenodd" clip-rule="evenodd" d="M131.65.17c-5.861 0-10.612 3.538-10.612 10.719 0 7.18 16.021 23.329 18.726 23.329 2.705 0 18.726-16.148 18.726-23.329 0-7.18-4.751-10.719-10.611-10.719-3.255 0-6.168 1.481-8.115 3.812C137.818 1.65 134.905.17 131.65.17z" fill="#E44343"/><path fill-rule="evenodd" clip-rule="evenodd" d="M126.197 6.866c1.447-2.068 3.894-3.283 6.349-3.283a1.702 1.702 0 0 1 0 3.404c-1.381 0-2.77.703-3.56 1.832-.734 1.048-1.053 2.613-.032 4.655a1.702 1.702 0 1 1-3.045 1.523c-1.536-3.073-1.216-5.982.288-8.13z" fill="#fff"/></g><defs><filter id="a" x=".571" y=".17" width="218.429" height="180.821" filterUnits="userSpaceOnUse" color-interpolation-filters="sRGB"><feFlood flood-opacity="0" result="BackgroundImageFix"/><feColorMatrix in="SourceAlpha" values="0 0 0 0 0 0 0 0 0 0 0 0 0 0 0 0 0 0 127 0" result="hardAlpha"/><feOffset dx=".786" dy="13.357"/><feGaussianBlur stdDeviation="5.107"/><feComposite in2="hardAlpha" operator="out"/><feColorMatrix values="0 0 0 0 0.128867 0 0 0 0 0.0722222 0 0 0 0 0.216667 0 0 0 0.2 0"/><feBlend in2="BackgroundImageFix" result="effect1_dropShadow_4_107"/><feBlend in="SourceGraphic" in2="effect1_dropShadow_4_107" result="shape"/></filter></defs></svg>
